X:1
T: The Camp Meeting
C:
R:Reel
Q: 232
K:C
M:4/4
L:1/8
|:((3GAB)|c4 d4|e2 c2 z2 de|fe dc dc BA|GA BA GF ED|
c4 d4|e2 c2 z2 de|fe dc Bg fd|c2 e2 c2:|
|:ef|g^f ga g=f ed|cd ec G2 fg|a^g a_b a=g fe|fg af d2 fe|
d^c de fg ba|cB cd ef ag|^fg ba g=f ed|c2 e2 c2:|
